X:1
T:Gesammelte Motetten
T:Die Güte des Herrn
T:Johann Heinrich Rolle
T:Die Güte des Herrn
T:CPDL - Creative Commons Attribution Non Commercial 3.0
T:CPDL - Creative Commons Attribution Non Commercial 3.0
T:CPDL - Creative Commons Attribution Non Commercial 3.0
T:CPDL - Creative Commons Attribution Non Commercial 3.0
T:CPDL - Creative Commons Attribution Non Commercial 3.0
T:CPDL - Creative Commons Attribution Non Commercial 3.0
T:CPDL - Creative Commons Attribution Non Commercial 3.0
T:CPDL - Creative Commons Attribution Non Commercial 3.0
T:CPDL - Creative Commons Attribution Non Commercial 3.0
T:CPDL - Creative Commons Attribution Non Commercial 3.0
T:CPDL - Creative Commons Attribution Non Commercial 3.0
T:CPDL - Creative Commons Attribution Non Commercial 3.0
C:Johann Heinrich Rolle
Z:CPDL - Creative Commons Attribution Non Commercial 3.0
%%score [ 1 2 3 4 ]
L:1/8
M:4/4
K:G
V:1 treble nm="Sopran"
V:2 treble nm="Alt"
V:3 treble-8 nm="Tenor"
V:4 bass nm="Bass"
V:1
 d2 | d2 dd d2 g2 | B B/>c/ dc cB !^!g2- | g B/>c/ dc cB z B | !>!B3/2c/4d/4 cB AB c2 | %5
w: Die|Gü- te des Herrn ist,|dass wir _ nicht gar aus sind, dass|_ wir _ nicht gar aus sind, und|sei- * * ne Barm- her- zig- keit,|
!p! B3/2c/4d/4 cB AB c2 |!f! B e2 c B/A/A z A/>^c/ | d>f e>g f e/d/ aA/>^c/ | d>f e>g f e/d/ aA | %9
w: sei- * * ne Barm- her- zig- keit|hat noch kein En- * de, son- dern|sie ist al- le Mor- gen _ neu, son- dern|sie ist al- le Mor- gen _ neu und|
 (d g2) f e e2 d | B>e d^c | d!p! A2 A | A!f! f e (3e/f/g/ f!p! A2 A | A!f! f e (3e/f/g/ f2 z d | %14
w: sei- * ne Treu, sei- ne|Treu _ ist _|groß, sei- ne|Treu, sei- * ne _ _ Treu, sei- ne|Treu, sei- * ne _ _ Treu ist|
 e2 d^c d2 z |"^Solo" A | A2 AA A2 d2 | F F/>G/ AG GF d2- | d F/>G/ AG GF z |"^Tutti" d | %20
w: groß, ist * groß.|Die|Gü- te des Herrn ist,|dass wir * nicht gar aus sind, dass|_ wir * nicht gar aus sind.|Die|
 d2 dd d2 g2 | B B/>c/ dc cB !^!g2- | g B/>c/ dc cB z d | d2 e=f ed c2 | e2 ^fg fe d2 | %25
w: Gü- te des Herrn ist,|dass wir * nicht gar aus sind, dass|_ wir * nicht gar aus sind und|sei- ne Barm- her- zig- keit,|sei- ne Barm- her- zig- keit|
 !^!g2 cc cB z2 | !^!e2 AA AG z g | (d2 c2) B2 z G/>B/ | c>e d>=f e d/c/ gG/>B/ | %29
w: hat noch kein En- de,|hat noch kein En- de, kein|En- * de, son- dern|sie ist al- le Mor- gen _ neu, son- dern|
 c>e d>=f e d/c/ gg | (g ^f2) e ed z e | (e d2) c cB z c | (c B2) A AGgd | %33
w: sie ist al- le Mor- gen _ neu und|sei- * ne Treu, _ und|sei- * ne Treu, _ und|sei- * ne Treu, _ sei- ne|
 !^!e2 !^!F2 !^!G!p! B A (3A/B/c/ | B!f! d2 d d!p! B A (3A/B/c/ | (B d2)!f! d d2 z G | %36
w: Treu ist groß, sei- * ne _ _|Treu, sei- ne Treu, sei- * ne _ _|Treu _ ist groß, ist|
 !^!e4 !^!F4 | !^!G2 z2 z4 | z8 | z8 | z8 | z8 | z8 | z8 | z8 | z8 | z8 | z8 | z8 | z2 d2 f2 ed | %50
w: groß, ist|groß.||||||||||||Der Herr ist mein|
 e2 A2 g2 fe | fedd eeff | g2 d2 eeff | g8- | g2 fe f4 | g2 BB c2 d2 | (G2 e4 d2) | ^c2 cc d2 e2 | %58
w: Teil spricht mei- ne _|See- le, da- rum will ich auf ihn|hof- fen, will ich auf ihn|hof-||fen, will ich auf ihn|hof- * *|fen, will ich auf ihn|
 (A2 f4 e2) | d2 z2 z4 | z2 e2 g2 fe | f2 B2 a2 gf | (gf e4 d2) | c2 cc ddee | (=f6 e2) | %65
w: hof- * *|fen,|der Herr ist mein|Teil spricht mei- ne _|See- * * *|le, da- rum will ich auf ihn|hof- *|
 d2 BB ccdd | e2 e=f g2 c2 | (c4 B4) | c4 z4 | z2 a2 g2 =fe | =f2 d4 c2 | B2 d2 g4- | g4 ^f4 | %73
w: fen, da- rum will ich auf ihn|hof- fen, _ auf ihn|hof- *|fen,|der Herr ist mein|Teil, ist mein|Teil spricht mei-|* ne|
 g2 B2 c2 d2 | e2 e2 e2 e2 | (d8 | c8) | B2 dB edcB | (A6 G2 | c6 B2 | e6 ag | f4 g4 | B4 A4) | %83
w: See- le, da- rum|will ich auf ihn|hof-||fen, da- rum will ich auf ihn|hof- *|||||
 !fermata!G8 |] %84
w: fen.|
V:2
 G2 | A2 AA G2 G2 | G G/>A/ BA AG !^!G2- | G G/>A/ BA AG z G | !>!G3/2A/4B/4 AG FG A2 | %5
w: |||||
!p! G3/2A/4B/4 AG FG A2 |!f! G2 GG G/F/F z A/>A/ | A>A A>A AA AA/>A/ | F>F A>A AAAA | %9
w: ||||
"^sei     -      ne" AG A2 B BAA | B2 AG | F!p! F E (3E/F/G/ | %12
w: |||
 F!f! d ^c (3c/d/e/ d!p! F E (3E/F/G/ | F!f! d ^c (3c/d/e/ d2 z A | B2 AG F2 z | F | G2 GG F2 A2 | %17
w: |||||
 D D/>E/ FE ED A2- | A D/>E/ FE ED z | G | A2 AA G2 G2 | G G/>A/ BA AG !^!G2- | G G/>A/ BA AG z G | %23
w: ||||||
 G2 GG G=F G2 | A2 AA AG A2 | !^!G2 cc cB z2 | !^!c2 AA AG z G | (G2 F2) G2 z G/>G/ | %28
w: |||||
 G>c B>d cG GG/>G/ | c>c d>d cGGd | c2 B2 A2 AB | A2 G2 F F2 G | F2 E2 D2 BG | %33
w: |* * * * * * * und|sei- ne Treu, sei- ne|Treu ist groß, sei- ne|Treu ist groß, * *|
 !^!G2 !^!D2 !^!D!p! G F (3F/G/A/ | G!f! G F (3F/G/A/ G!p! G F (3F/G/A/ | %35
w: ||
 G!f! G F (3F/G/A/ G2 z G | !^!G4 !^!D4 | !^!D2 z2 z4 | z8 | z8 | z8 | z8 | z8 | z8 | z8 | %45
w: * sei- * ne _ _ Treu *||||||||||
 z2 G2 B2 AG | A2 D2 c2 BA | BAGG AABB | c2 A2 BB^cc | d8- | d2 ^cB c4 | d2 dd d2 =c2 | B2 B2 A4 | %53
w: Der Herr ist mein|Teil spricht mei- ne _|See- le, da- rum will ich auf ihn|hof- fen, will ich auf ihn|hof-||fen, da- rum will ich|auf ihn hof-|
 G2 B2 d2 cB | c2 c2 A2 A2 | G2 G2 z2 =F2 | E2 GG AABB | ^c2 A4 G2 | F2 AA BB^AA | B6 =A2 | %60
w: fen, der Herr ist mein|Teil spricht mei- ne|See- le, da-|rum, da- rum will ich auf ihn|hof- * *|fen, da- rum will ich auf ihn|hof- *|
 G2 G2 B2 AG | A2 F2 F2 B2 | B2 E2 z4 | z2 AA BB^cc | (d6 =c2) | B2 GG AABB | c2 G2 z2"^der" G2 | %67
w: fen, der Herr ist mein|Teil spricht mei- ne|See- le,|||||
 G4 G2 G2 | G2 (E2 =F2) G2 | A2 A2 _B2 AA | A2 (=F2 G2) A2 | G2 B2 d2 cB | c2 A2 A2 A2 | %73
w: Herr ist mein|Teil, ist _ mein|Teil, der Herr ist mein|Teil, ist _ mein|Teil, der Herr ist mein|Teil spricht mei- ne|
 G2 G2 G2 G2 | G2 c2 c2 c2 | (B8 | A8) | G2 BG cBAG | (G2 F2 B4- | B2 A2 d4- | d2 cB c4- | %81
w: See- le, * *||hof-||fen, * * * * * *||||
 c2 BA d2 G2 | G4 F4) | !fermata!G8 |] %84
w: |||
V:3
 B2 | c2 cc B2 d2 | dddd dd !^!d2- | dddd dd z d | e2 eg dd d2 |!p! d2 eg dd d2 | %6
w: Die|Gü- te des Herrn ist,|dass wir nicht gar aus sind, dass|_ wir nicht gar aus sind, und|sei- ne Barm- her- zig- keit,|sei- ne Barm- her- zig- keit|
!f! d c2 e dd z f/>e/ | d>d ^c>e df ee/>e/ | f>d e>e dfee | d2 ^c2 e2 Ad | d>g fe | %11
w: hat noch kein En- de, son- dern|sie ist al- le Mor- gen neu, son- dern|sie ist al- le Mor- gen neu und|sei- ne Treu, sei- ne|Treu _ ist _|
 d!p! d ^c (3c/d/e/ | d2!f! AA D!p! d ^c (3c/d/e/ | d2!f! AA A2 z d | g2 fe d2 z | d | %16
w: groß, sei- * ne _ _|Treu, sei- ne Treu, sei- * ne _ _|Treu, sei- ne Treu ist|groß, ist * groß.|Die|
 e2 ee d2 d2 | AAAA AA z2 | AAAA AA z | B | c2 cc B2 d2 | dddd dd !^!d2- | dddd dd z B | %23
w: Gü- te des Herrn ist,|dass wir nicht gar aus sind,|dass wir nicht gar aus sind.|Die|Gü- te des Herrn ist,|dass wir nicht gar aus sind, dass|_ wir nicht gar aus sind und|
 B2 cd cB c2 | ^c2 de dc d2 | !^!e2 gg ff z2 | !^!e2 ee dd z d | (e2 d2) d2 z B/>d/ | %28
w: sei- ne Barm- her- zig- keit,|sei- ne Barm- her- zig- keit|hat noch kein En- de,|hat noch kein En- de, kein|En- * de, son- dern|
 c>g g>g ge dd/>d/ | e>e g>g gedB | A2 G2 F2 FG | A2 e2 f2 dc | d2 e2 d2 dd | %33
w: sie ist al- le Mor- gen neu, son- dern|sie ist al- le Mor- gen neu und|sei- ne Treu, sei- ne|Treu ist groß, sei- ne|Treu ist groß, sei- ne|
 !^!c2 !^!A2 !^!B2 z2 | z!f! B A (3A/B/c/ B!p! d2 d | d2!f! d2 g2 z d | !^!c4 !^!A4 | !^!B2 z2 z4 | %38
w: Treu ist groß,|sei- * ne _ _ Treu, sei- ne|Treu ist groß, ist|groß, ist|groß.|
 z8 | z8 | z8 | z2 d2 f2 ed | e2 A2 g2 fe | fedd eeff | g2 d2 eeff | g8- | g2 fe f4 | %47
w: |||Der Herr ist mein|Teil spricht mei- ne _|See- le, da- rum will ich auf ihn|hof- fen, will ich auf ihn|hof-||
 g2 gg g2 =f2 | e2 e2 e4 | d2 fe d2 ff | a2 e2 A2 A2 | defd AAdd | G2 B2 ccdd | B2 G2 z4 | %54
w: fen, da- rum will ich|auf ihn hof-|fen, der _ Herr ist mein|Teil spricht mei- ne|See- le, da- rum will ich auf ihn|hof- fen, will ich auf ihn|hof- fen|
 z2 A2 d2 d2 | d2 G2 z4 | z2 ee ffgg | a2 A2 z4 | z2 ff ^ggff | f2 d2 eeff | (e8 | B4) B4 | %62
w: spricht mei- ne|See- le,|da- rum will ich auf ihn|hof- fen,|da- rum will ich auf ihn|hof- fen, will ich auf ihn|hof-|* fen,|
 z2 GG AABB | A8 | A2 =FF GGAA | B2 B2 z4 | z2 c2 e2 dc | d2 G2 =f2 ed | edcc ddee | (=f2 d4 ^c2) | %70
w: da- rum will ich auf ihn|hof-|fen, da- rum will ich auf ihn|hof- fen,|der Herr ist mein|Teil spricht mei- ne _|See- le, da- rum will ich auf ihn|hof- * *|
 d2 dd ee^ff | g4 G2 z2 | z2 A2 d2 d2 | d2 G2 A2 B2 | c2 g2 f2 f2 | (f4 e4- | e4 d4) | d2 z2 z4 | %78
w: fen, da- rum will ich auf ihn|hof- fen,|spricht mei- ne|See- le, da- rum|will ich auf ihn|hof- *||fen,|
 z2 dd dddd | d4 D4 | z2 dd dddd | d8- | (d4 c4) | !fermata!B8 |] %84
w: da- rum will ich auf ihn|hof- fen,|da- rum will ich auf ihn|hof-||fen.|
V:4
 G,2 | F,2 F,F, G,2 B,>C | DDD,D, G, G,/>A,/ B, B,/>C/ | D2 D,2 G,G, z G, | %4
w: ||* * * * * * * dass wir _|nicht gar aus sind, *|
 C,2 C,^C, D,D, D,E,/F,/ |!p! G,2 C,^C, D,D, D,E,/F,/ |!f! G,2 C,C, D,D, z D,/>E,/ | %7
w: ||hat noch * * * * *|
 F,>F, A,>A, DD ^CC/>C/ | %8
w: |
"^CPDL - Creative Commons Attribution Non Commercial 3.0" B,>B, ^C>C DDCC | B,2 A,2 G, G,F,F, | %10
w: |* * * sei- * ne|
 G,2 A,2 | D,2 z!p! A, | D2!f! A,A, D,2 z!p! A, | D2!f! A,A, D,2 z F, | G,2 A,2 D,2 z | D, | %16
w: |groß, ist|groß, sei- ne Treu ist|groß sei- ne Treu ist|groß, ist groß.||
 ^C,2 C,C, D,2 F,>G, | A,A,A,A, D, D,/>E,/ F, F,/>G,/ | A,2 A,,2 D,D/>^C/ D | G, | %20
w: |* * * * * * * dass wir _|nicht gar aus _ _ sind.||
 F,2 F,F, G,2 B,>C | DDD,D, G, G,/>A,/ B, B,/>C/ | D2 D,2 G,G, z G, | =F,2 E,B,, C,D, E,2 | %24
w: |* * * * * * * dass wir _|nicht gar aus sind *||
 G,2 ^F,^C, D,E, F,2 | E,E/>^D/ EE =DD, !^!D2 | C C/>B,/ CC B,B,, !^!B,2 | %27
w: |hat _ _ noch kein En- de, hat,|hat noch _ _ kein En- de, kein|
 (A,2 D,2) G,2 z =F,/>F,/ | E,>E, G,>G, CC B,B,/>B,/ | A,>A, B,>B, CCB,B, | A,2 G,2 F,2 F,G, | %31
w: En- * de, * *||||
 F,2 E,2 D,2 D,E, | D,2 C,2 B,,2 B,B, | !^!C2 !^!D2 !^!G,2 z!p! D | G,2!f! D,D, G,2 z!p! D | %35
w: ||* * * ist|groß, sei- ne Treu ist|
 G,!f! B, A, (3A,/B,/C/ B,2 z B,, | !^!C,4 !^!D,4 | !^!G,,2 G,2 B,2 A,G, | A,2 D,2 C2 B,A, | %39
w: groß, sei- * ne _ _ Treu ist|groß, ist|groß. Der Herr ist mein|Teil spricht mei- ne _|
 B,A,G,G, A,A,B,B, | C2 A,2 B,B,^CC | D8- | D2 ^CB, C4 | D2 DD D2 =C2 | B,2 B,2 A,4 | %45
w: See- le, da- rum will ich auf ihn|hof- fen, will ich auf ihn|hof-||fen, da- rum will ich|auf ihn ho-|
 G,2 B,A, G,2 A,B, | C2 D,2 D,2 D,2 | G,A,B,G, D,D,G,G, | C,2 A,2 G,G,A,A, | D,2 D,2 z2 D2 | %50
w: fen, der _ Herr ist mein|Teil spricht mei- ne|See- le, da- rum will ich auf ihn|hof- fen, will ich auf ihn|hof- fen, mein|
 A,2 z2 z2 A,2 | D,2 z2 z4 | z8 | z2 G,2 B,2 A,G, | A,2 D,2 C2 B,A, | B,A,G,G, A,A,B,B, | %56
w: Teil, mein|Teil,||der Herr ist mein|Teil spricht mei- ne _|See- le, da- rum will ich auf ihn|
 (C6 B,2) | A,2 A,A, B,B,^CC | (D6 ^C2) | B,2 B,B, ^CC^DD | (E4 E,4- | E,4 ^D,4) | %62
w: hof- *|fen, da- rum will ich auf ihn|hof- *|fen, da- rum will ich auf ihn|hof- *||
 E,2 E,E, F,F,^G,G, | (A,6 =G,2) | =F,2 D,D, E,E,^F,F, | (G,6 =F,2) | E,4 (C,4 | G,8) | C,2 z2 z4 | %69
w: fen, * * * * * *|||hof- *|fen, hof-||fen,|
 z2 =F,2 E,2 A,A, | D,2 z2 z4 | z2 G,2 B,2 A,G, | A,2 D,2 C2 B,A, | B,A,G,G, A,A,B,B, | %74
w: der Herr ist mein|Teil,|der Herr ist mein|Teil spricht mei- ne _|See- le, da- rum will ich auf ihn|
 CC,CB, A,G,F,A, | B,B,,B,A, G,F,E,G, | A,A,,A,G, F,E,D,F, | (G,4 C,4) | D,4 z4 | z2 DD DDDD | %80
w: hof- fen, da- rum will ich auf ihn|hof- fen, da- rum will ich auf ihn|hof- fen, da- rum will ich auf ihn|hof- *|fen,|da- rum will ich auf ihn|
 D4 D,4 | z2 DC B,A,G,B, | D,8 | !fermata!G,8 |] %84
w: hof- fen,|da- rum will ich auf ihn|hof-|fen.|

